build/admin/icons/google-map.svg

<svg width="30" height="30" viewBox="0 0 30 30" fill="none" xmlns="http://www.w3.org/2000/svg">
<path d="M4.68385 21.2365C3.79739 21.2365 3.07422 20.5133 3.07422 19.6268C3.07422 18.7404 3.79739 18.0172 4.68385 18.0172C5.57032 18.0172 6.29349 18.7404 6.29349 19.6268C6.29349 20.5133 5.57032 21.2365 4.68385 21.2365ZM4.68385 18.9037C4.28728 18.9037 3.96068 19.2303 3.96068 19.6268C3.96068 20.0234 4.28728 20.35 4.68385 20.35C5.08043 20.35 5.40702 20.0234 5.40702 19.6268C5.40702 19.2303 5.08043 18.9037 4.68385 18.9037Z" fill="white"/>
<path d="M14.9888 10.291C13.2206 10.291 11.7695 11.682 11.7695 13.403C11.7695 13.9216 11.9037 14.4285 12.1597 14.8764L14.8181 19.5208C14.8547 19.5798 14.9156 19.6269 14.9888 19.6269C15.062 19.6269 15.1351 19.5915 15.1595 19.5208L17.8179 14.8764C18.0739 14.4285 18.2081 13.9098 18.2081 13.403C18.2081 11.682 16.757 10.291 14.9888 10.291V10.291ZM14.9888 14.959C14.0986 14.959 13.3792 14.2635 13.3792 13.403C13.3792 12.5425 14.0986 11.847 14.9888 11.847C15.879 11.847 16.5984 12.5425 16.5984 13.403C16.5984 14.2635 15.879 14.959 14.9888 14.959Z" fill="white"/>
<path d="M10.5634 19.9527L3 15.4931V13.4596L10.5634 9V11.9255L5.98494 14.4704L10.5634 17.0153V19.9527ZM3.90381 14.9818L9.64774 18.3592V17.5624L4.61734 14.7677V14.1969L9.64774 11.4022V10.6054L3.90381 13.9828V14.9818Z" fill="white"/>
<path d="M19.4102 19.9524V17.0269L23.9887 14.482L19.4102 11.9371V9.0116L26.9736 13.4712V15.5047L19.4102 19.9524ZM20.3259 17.5621V18.3589L26.0698 14.9815V13.9944L20.3259 10.617V11.4138L25.3563 14.2085V14.7793L20.3259 17.5621Z" fill="white"/>
</svg>

<svg width="30" height="30" fill="none" viewBox="0 0 30 30" xmlns="http://www.w3.org/2000/svg"><path fill="#fff" d="M4.684 21.236c-.887 0-1.61-.723-1.61-1.61 0-.886.723-1.609 1.61-1.609.886 0 1.61.723 1.61 1.61 0 .886-.724 1.61-1.61 1.61Zm0-2.332a.727.727 0 0 0-.723.723c0 .396.326.723.723.723a.727.727 0 0 0 .723-.723.727.727 0 0 0-.723-.723Zm10.305-8.613c-1.768 0-3.22 1.391-3.22 3.112 0 .519.135 1.025.39 1.473l2.66 4.645c.036.059.097.106.17.106.073 0 .146-.035.17-.106l2.659-4.645c.256-.447.39-.966.39-1.473 0-1.721-1.451-3.112-3.22-3.112Zm0 4.668c-.89 0-1.61-.695-1.61-1.556 0-.86.72-1.556 1.61-1.556.89 0 1.61.696 1.61 1.556 0 .86-.72 1.556-1.61 1.556Zm-4.426 4.994L3 15.493V13.46L10.563 9v2.925L5.985 14.47l4.578 2.545v2.938Zm-6.66-4.971 5.745 3.377v-.797l-5.03-2.794v-.571l5.03-2.795v-.797l-5.744 3.378v.999Zm15.507 4.97v-2.925l4.579-2.545-4.579-2.545V9.012l7.564 4.46v2.033l-7.564 4.447Zm.916-2.39v.797l5.744-3.378v-.987l-5.744-3.377v.797l5.03 2.795v.57l-5.03 2.783Z"/></svg>
